X:11
T:Albarony
C:John Young, c. 1726
L:1/4
B:John Young, Dancing Master Vol 3, 2nd Ed, c1726
S:Colin Hume's website,  colinhume.com  - chords can also be printed below the stave.
%%MIDI ratio 3 1
Q:1/2=108
%%MIDI program 71     Clarinet
M:2/2
R:Reel
K:G
P:A
|: G | "G"Bd dg | "D"f>e dc | "G"BG "D7"AF | "G"G3G |\
"G"Bd dg | "D"f>g a>g | "D"f/e/d "A7"e^c | "D"d3 :|
P:B
|: d | "Am"ec c>e | "C"gc c>B | "D7"AG/A/ Fd | "G"B4 |\
"Em"GE/D/ "Am"c2 | "D7"FE/D/ "G"d2 | "Em"BA/G/ "D7"D>D | "G"G3 :|

